!!!!SEGMENT: pl-kk--kk-i-7--055-001_goudimel-claude--missa-audi-filia-kyrie.krn
!!!cenid: 16xx:883
!!!COM: Goudimel, Claude
!!!COM-rismid: pe387526
!!!CDT: ~1514-1572/08
!!!CNT: French
!!!OPR: Missa Audi Filia
!!!OTL: Kyrie
!!!OMV: 001
!!!PDT:
!!!AGN: Sacred; Mass
!!!SMS-siglum: PL-Kk
!!!SMS-shelfmark: Kk.I.7
!!!SMS-shelfwork: 055-001 M
!!!SMS-variant:
!!!SMS-altvar:
!!!NIFC-rismid: 300258132
!!!URL-scan: http://repozytorium.nifc.pl/skany/pl-kk-nut--i-7
!!!ONB-nifc: UWAGA: C (skan 0052-0054, s.97-100), A (0136-0137, s.93-95), T(0213-0214, s.88-91), B(0300-0301, s.87-89). Części Mszy: 1. Kyrie, 2. Et in terra, 3. Sanctus, 4. Agnus. „Agnus II" rozpisane na 5 głosów. Dodatkowy głoś zapisany w księdze T na stronie 91
!!!key:
**kern	**text	**kern	**text	**kern	**text	**kern	**text
*part5	*part5	*part3	*part3	*part2	*part2	*part1	*part1
*staff5	*staff5	*staff3	*staff3	*staff2	*staff2	*staff1	*staff1
*Ibass	*	*Itenor	*	*Ialto	*	*Isoprn	*
*I"BASSVS.	*	*I"TENOR.	*	*I"ALTVS.	*	*I"CANTVS.	*
*I'B.	*	*I'T.	*	*I'A.	*	*I'C.	*
*clefF3	*	*clefC3	*	*clefC2	*	*clefG2	*
*k[b-]	*	*k[b-]	*	*k[b-]	*	*k[b-]	*
*F:	*	*F:	*	*F:	*	*F:	*
*M2/1	*	*M2/1	*	*M2/1	*	*M2/1	*
*met(c|)	*	*met(c|)	*	*met(c|)	*	*met(c|)	*
=1	=1	=1	=1	=1	=1	=1	=1
!	!	!	!	!	!	!LO:TX:t=P:problem=K wielkie przed kluczem, na pocz. pięciolinii	!
!LO:TX:a:i:t=Miſsa Audi Filia.	!	!LO:TX:i:a:t=Miſsa Audi Filia	!	!	!	!	!
00r	.	00r	.	0r	.	0cc\	Ky-
=2-	=2-	=2-	=2-	=2-	=2-	=2-	=2-
!	!	!	!	!LO:TX:t=P:problem=kreska pseudotaktowa	!	!	!
.	.	.	.	1r	.	1a/	-ri-
!	!	!	!	!LO:TX:t=P:problem=K wielkie przed kluczem, na pocz. pięciolinii	!	!	!
.	.	.	.	0g\	Ky-	1.b-\	-e
=3-	=3-	=3-	=3-	=3-	=3-	=3-	=3-
00r	.	0r	.	.	.	.	.
.	.	.	.	.	.	2a/	.
!	!	!	!	!	!	!LO:TX:t=P:problem=kreska pseudotaktowa	!
.	.	.	.	1e\	-ri-	1g/	.
=4-	=4-	=4-	=4-	=4-	=4-	=4-	=4-
!	!	!LO:TX:t=P:problem=kreska pseudotaktowa	!	!	!	!	!
.	.	1r	.	1.f\	-e	2r	.
*	*	*	*	*	*	*2\right	*
.	.	.	.	.	.	2cc\	Ky-
!	!	!LO:TX:t=P:problem=K wielkie przed kluczem, na pocz. pięciolinii	!	!	!	!	!
.	.	0f\	Ky-	.	.	2a/	-ri-
.	.	.	.	2e/	e-	2cc\	-e
=5-	=5-	=5-	=5-	=5-	=5-	=5-	=5-
!LO:TX:t=P:problem=kreska pseudotaktowa	!	!	!	!	!	!	!
0r	.	.	.	4d/	-lei-	4b-/	e-
.	.	.	.	4c/	.	4a/	.
.	.	.	.	4B-/	.	1a/	-lei-
.	.	.	.	4A/	.	.	.
.	.	1d\	-ri-	1B-/	.	.	.
.	.	.	.	.	.	2g/	.
=6-	=6-	=6-	=6-	=6-	=6-	=6-	=6-
!LO:TX:t=P:problem=K wielkie przed kluczem, na pocz. pięciolinii	!	!	!	!LO:TX:t=P:problem=kreska pseudotaktowa	!	!LO:TX:t=P:problem=kreska pseudotaktowa	!
0c\	Ky-	1.e\	-e	1A/	-son	1a/	-son
*	*	*2\right	*	*	*	*	*ij
.	.	.	.	0r	.	1g/	Ky-
.	.	2d\	e-	.	.	.	.
=7-	=7-	=7-	=7-	=7-	=7-	=7-	=7-
1A\	-ri-	2c\	.	.	.	2cc\	-ri-
.	.	2.f\	.	.	.	2cc\	-e
1.B-\	-e	.	.	2r	.	2b-\	e-
.	.	4e\	.	.	.	.	.
*	*	*	*	*2\right	*ij	*	*
.	.	4d\	.	2f\	Ky-	1dd\	-lei-
!	!	!LO:TX:t=P:problem=kreska pseudotaktowa	!	!	!	!	!
.	.	4c/	.	.	.	.	.
=8-	=8-	=8-	=8-	=8-	=8-	=8-	=8-
.	.	2B-/	.	2d/	-ri-	.	.
*2\right	*	*	*	*	*	*	*
2A\	e-	2c/	.	2f\	-e	1cc\	.
!LO:TX:t=P:problem=kreska pseudotaktowa	!	!	!	!	!	!	!
1G\	.	1d\	.	1g\	e-	.	.
.	.	.	.	.	.	2b-\	.
=9-	=9-	=9-	=9-	=9-	=9-	=9-	=9-
!	!	!	!	!	!	!LO:TX:t=P:problem=kreska pseudotaktowa	!
2.A\	-lei-	2.c/	.	2e\	.	1cc\	-son
*	*	*	*	*	*	*	*Xij
.	.	.	.	1a\	.	.	.
4G\	.	4B-/	.	.	.	.	.
2F\	.	2A/	-lei-	.	.	1r	.
2G\	.	1B-/	.	1g\	.	.	.
=10-	=10-	=10-	=10-	=10-	=10-	=10-	=10-
!	!	!	!	!	!	!LO:TX:a:t=2	!
2E/	.	.	.	.	.	0cc\	Ky-
2F/	.	2A/	.	1f\	.	.	.
1C/	.	1G/	.	.	.	.	.
!	!	!	!	!LO:TX:t=P:problem=kreska pseudotaktowa	!	!	!
.	.	.	.	2e\	.	.	.
=11-	=11-	=11-	=11-	=11-	=11-	=11-	=11-
!LO:TX:t=P:problem=kreska pseudotaktowa	!	!	!	!	!	!	!
1F\	-son	2F,</	-son	2.f\	-lei-	1a/	-ri-
.	.	1f\	e-	.	.	.	.
.	.	.	.	4e/	.	.	.
!LO:TX:t=P:problem=kreska pseudotaktowa	!	!	!	!	!	!	!
0r	.	.	.	4d/	.	1.b-\	-e
.	.	.	.	4c/	.	.	.
!	!	!LO:TX:t=P:problem=kreska pseudotaktowa	!	!	!	!	!
.	.	2d\	.	4B-/	.	.	.
.	.	.	.	4A/	.	.	.
=12-	=12-	=12-	=12-	=12-	=12-	=12-	=12-
.	.	2e\	-lei-	2G/	.	.	.
.	.	1f\	.	2A/	.	2a/	.
!	!	!	!	!	!	!LO:TX:t=P:problem=kreska pseudotaktowa	!
2r	.	.	.	2B-/	.	1g/	.
1c\	Ky-	2e\	.	2c/	.	.	.
=13-	=13-	=13-	=13-	=13-	=13-	=13-	=13-
!	!	!LO:TX:t=P:problem=kreska pseudotaktowa	!	!LO:TX:t=P:problem=kreska pseudotaktowa	!	!	!
.	.	0.f\	-son	1f\	-son	1cc\	e-
*	*	*	*	*	*Xij	*	*
2A\	-ri-	.	.	.	.	.	.
1.B-\	-e	.	.	2r	.	4dd\	.
.	.	.	.	.	.	4ee\	.
.	.	.	.	2d/	Ky-	4ff\	.
.	.	.	.	.	.	4ee\	.
=14-	=14-	=14-	=14-	=14-	=14-	=14-	=14-
.	.	.	.	2B-/	-ri-	4dd\	.
.	.	.	.	.	.	4cc\	.
!LO:TX:t=P:problem=kreska pseudotaktowa	!	!	!	!	!	!	!
2A\	.	.	.	2c/	-e	1cc\	.
1G\	e-	1r	.	2d/	.	.	.
!	!	!	!	!	!	!LO:TX:t=P:problem=kreska pseudotaktowa	!
.	.	.	.	2e/	e-	2b-/	.
=15-	=15-	=15-	=15-	=15-	=15-	=15-	=15-
2.F/	-lei-	2r	.	1f\	-lei-	2.a/	-lei-
.	.	1c\	e-	.	.	.	.
8E/L	.	.	.	.	.	8g/L	.
8D/J	.	.	.	.	.	8f/J	.
2C/	.	.	.	2e/	.	2g/	.
2F/	.	2A/	-lei-	2c/	.	2a/	.
=16-	=16-	=16-	=16-	=16-	=16-	=16-	=16-
*lig	*	*	*	*lig	*	*	*
1BB-/	.	1B-/	.	1d/	.	4g/	.
.	.	.	.	.	.	4f/	.
.	.	.	.	.	.	1f/	.
1C/	.	1G/	.	1c/	.	.	.
.	.	.	.	.	.	2e/	.
*Xlig	*	*	*	*Xlig	*	*	*
=17-	=17-	=17-	=17-	=17-	=17-	=17-	=17-
!	!	!	!	!LO:TX:b:i:t=Miſsa\nAudi Filia	!	!LO:TX:i:b:t=Miſsa\nAudi Filia	!
0F\;	-son.	0A/;	-son.	0c/;	-son.	0f/;	-son.
=18||	=18||	=18||	=18||	=18||	=18||	=18||	=18||
*M2/1	*	*M2/1	*	*M2/1	*	*M2/1	*
*met(c|)	*	*met(c|)	*	*met(c|)	*	*met(c|)	*
!	!	!LO:LB:g=original	!	!	!	!LO:LB:g=original	!
!LO:LB:g=original	!	!LO:TX:t=P:problem=C wielkie przed kluczem, na pocz. pięciolinii	!LO:LB:g=original	!	!LO:TX:t=P:problem=kreska pseudotaktowa	!	!
1r	.	1.c\	Chri-	00r	.	00r	.
!LO:TX:t=P:problem=C wielkie przed kluczem, na pocz. pięciolinii	!	!	!	!	!	!	!
1.F\	Chri-	.	.	.	.	.	.
.	.	2d\	-ste	.	.	.	.
=19-	=19-	=19-	=19-	=19-	=19-	=19-	=19-
.	.	2c/	.	.	.	.	.
2G\	.	2B-/	e-	.	.	.	.
2F\	-ste	2.c/	-lei-	.	.	.	.
!LO:TX:t=P:problem=kreska pseudotaktowa	!	!	!	!	!	!	!
2E/	.	.	.	.	.	.	.
.	.	4B-/	.	.	.	.	.
=20-	=20-	=20-	=20-	=20-	=20-	=20-	=20-
!	!	!	!	!LO:TX:t=P:problem=kreska pseudotaktowa	!	!LO:TX:t=P:problem=C wielkie przed kluczem, na pocz. pięciolinii	!
2.F\	e-	4A/	.	1re	.	1.cc\	Chri-
.	.	4G/	.	.	.	.	.
!	!	!LO:TX:t=P:problem=kreska pseudotaktowa	!	!	!	!	!
.	.	2A/	-son	.	.	.	.
4G\	.	.	.	.	.	.	.
2A\	.	0r	.	2rc	.	.	.
!	!	!	!	!LO:TX:t=P:problem=C wielkie przed kluczem, na pocz. pięciolinii	!	!	!
2B-\	.	.	.	1f\	Chri-	2dd\	.
=21-	=21-	=21-	=21-	=21-	=21-	=21-	=21-
2A\	-lei-	.	.	.	.	2cc\	-ste
!	!	!	!	!LO:TX:t=P:problem=kreska pseudotaktowa	!	!	!
2G\	.	.	.	2g\	-ste	2b-\	.
*	*	*	*ij	*	*	*lig	*
!LO:TX:t=P:problem=kreska pseudotaktowa	!	!	!	!	!	!	!
1A\	-son	2r	.	2f\	.	1cc\	e-
.	.	2c\	Chri-	2e\	e-	.	.
=22-	=22-	=22-	=22-	=22-	=22-	=22-	=22-
2r	.	1d\	-ste	1.f\	-lei-	1.a/	.
*	*ij	*	*	*	*	*	*
1F\	Chri-	.	.	.	.	.	.
*	*	*	*	*	*	*Xlig	*
.	.	2c\	.	.	.	.	.
!	!	!	!	!LO:TX:t=P:problem=kreska pseudotaktowa	!	!	!
2G\	-ste	2B-/	.	2d/	-ſon	2g/	.
=23-	=23-	=23-	=23-	=23-	=23-	=23-	=23-
2F\	.	2c\	e-	2r	.	2a/	.
*	*	*	*	*	*ij	*	*
2BB-/	e-	2.d\	-lei-	1f\	Chri-	2b-/	.
2F/	-lei-	.	.	.	.	4a/	-lei-
.	.	4e\	.	.	.	4g/	.
!	!	!	!	!LO:TX:t=P:problem=kreska pseudotaktowa	!	!	!
2D/	.	1f\	.	2f\	-ste	4a/	.
.	.	.	.	.	.	4b-/	.
=24-	=24-	=24-	=24-	=24-	=24-	=24-	=24-
!LO:TX:t=P:problem=kreska pseudotaktowa	!	!	!	!	!	!	!
1C/	-son	.	.	2.g\	e-	4cc\	.
.	.	.	.	.	.	4dd\	.
!	!	!LO:TX:t=P:problem=kreska pseudotaktowa	!	!	!	!	!
.	.	2e\	.	.	.	4ee\	.
!	!	!	!	!	!	!LO:TX:t=P:problem=kreska pseudotaktowa	!
.	.	.	.	4a\	.	4cc\	.
*	*Xij	*lig	*	*	*	*	*
1r	.	1d\	.	4b-\	.	4dd\	.
.	.	.	.	4a\	.	4ee\	.
.	.	.	.	4a\	.	1ff\	.
.	.	.	.	8g\L	.	.	.
.	.	.	.	8f\J	.	.	.
=25-	=25-	=25-	=25-	=25-	=25-	=25-	=25-
2r	.	1c\	.	1g\	-lei-	.	.
1c\	Chri-	.	.	.	.	2ee\	-son
*	*	*Xlig	*	*	*	*	*
!	!	!LO:TX:t=P:problem=kreska pseudotaktowa	!	!LO:TX:t=P:problem=kreska pseudotaktowa	!	!	!
.	.	1F/	-son	1a\	-ſon	2ff,<\	.
*	*	*	*Xij	*	*Xij	*	*
2d\	.	.	.	.	.	2f/	e-
=26-	=26-	=26-	=26-	=26-	=26-	=26-	=26-
2c\	.	2r	.	1r	.	2a/	-lei-
2B-\	-ste	1f\	x-	.	.	2b-/	.
!	!	!	!	!	!	!LO:TX:t=P:problem=kreska pseudotaktowa	!
!LO:TX:t=P:problem=kreska pseudotaktowa	!	!	!	!	!	!	!
1c\	.	.	.	2r	.	1g/	-ſon
.	.	2e\	-te	1c/	Chri-	.	.
=27-	=27-	=27-	=27-	=27-	=27-	=27-	=27-
2.F\	e-	1.f\	.	.	.	2r	.
.	.	.	.	2d/	.	1a/	X-
4G\	.	.	.	.	.	.	.
2A\	.	.	.	2c/	.	.	.
2G\	.	2g\	e-	2B-/	.	1b-\	-te
=28-	=28-	=28-	=28-	=28-	=28-	=28-	=28-
*lig	*	*	*	*lig	*	*	*
1A\	-lei-	2e\	.	1c/	-ste	.	.
.	.	2.f\	.	.	.	1a/	e-
!	!	!	!	!LO:TX:t=P:problem=kreska pseudotaktowa	!	!	!
1B-\	.	.	.	1d/	.	.	.
.	.	4e\	.	.	.	.	.
.	.	1d\	.	.	.	2g/	-lei-
*Xlig	*	*	*	*Xlig	*	*	*
=29-	=29-	=29-	=29-	=29-	=29-	=29-	=29-
!	!	!	!	!	!	!LO:TX:t=P:problem=kreska pseudotaktowa	!
!LO:TX:t=P:problem=kreska pseudotaktowa	!	!	!	!	!	!	!
1A\	-son	.	.	1e\	e-	0a/	-ſon
!	!	!LO:TX:t=P:problem=kreska pseudotaktowa	!	!	!	!	!
.	.	2c/	.	.	.	.	.
2D/	e-	2.d\	.	2.f\	-lei-	.	.
2.F/	.	.	.	.	.	.	.
.	.	8c/L	-lei-	8e/L	.	.	.
!	!	!	!	!LO:TX:t=P:problem=kreska pseudotaktowa	!	!	!
.	.	8B-/J	.	8d/J	.	.	.
=30-	=30-	=30-	=30-	=30-	=30-	=30-	=30-
.	.	2A/	.	2c/	.	2r	.
4E/	.	.	.	.	.	.	.
4D/	.	2.B-/	.	1d/	.	1f/	X-
4C/	.	.	.	.	.	.	.
2BB-/	-lei-	.	.	.	.	.	.
.	.	4A/	.	.	.	.	.
!	!	!	!	!LO:TX:t=P:problem=kreska pseudotaktowa	!	!	!
2C/	.	1G/	.	2c/	.	2e/	-te
=31-	=31-	=31-	=31-	=31-	=31-	=31-	=31-
*lig	*	*	*	*	*	*	*
1D/	.	.	.	2B-/	.	4f/	e-
.	.	.	.	.	.	4g/	.
!	!	!LO:TX:t=P:problem=kreska pseudotaktowa	!	!	!	!	!
.	.	2F/	.	2A/	.	4a/	.
!	!	!	!	!	!	!LO:TX:t=P:problem=kreska pseudotaktowa	!
.	.	.	.	.	.	4f/	.
1BB-/	.	1B-/	.	1d/	.	2g/	-lei-
.	.	.	.	.	.	1f/	.
*Xlig	*	*	*	*	*	*	*
=32-	=32-	=32-	=32-	=32-	=32-	=32-	=32-
[0C/;l	-son	2A/	.	[0c/;l	-son.	.	.
.	.	4G/	.	.	.	4e/	.
!	!	!LO:SIC:v:t=custos G	!	!	!	!	!
!	!	!LO:TX:t=P:problem=kreska pseudotaktowa	!	!	!	!	!
.	.	4F/	.	.	.	4d/	.
!	!	!LO:LB:g=original	!	!	!	!LO:SIC:v:t=custos cc	!
.	.	2G/	.	.	.	[1e/;l	-son.
.	.	2A/	.	.	.	.	.
=33-	=33-	=33-	=33-	=33-	=33-	=33-	=33-
0C/]	.	0G/;	-son.	0c/]	.	0e/]	.
=34||	=34||	=34||	=34||	=34||	=34||	=34||	=34||
*M2/1	*	*M2/1	*	*M2/1	*	*M2/1	*
*met(c|)	*	*met(c|)	*	*met(c|)	*	*met(c|)	*
*	*	*k[b-]	*	*	*	*	*
!	!	!	!	!LO:TX:t=P:problem=K wielkie przed kluczem, na pocz. pięciolinii	!LO:PB:g=original	!	!
!LO:LB:g=original	!	!LO:TX:t=P:problem=kreska pseudotaktowa	!	!LO:LB:g=original	!	!LO:TX:t=P:problem=kreska pseudotaktowa	!
00r	.	0r	.	1.g\	Ky-	00r	.
!	!	!	!	!LO:TX:t=P:problem=kreska pseudotaktowa	!	!	!
.	.	.	.	2g\	-ri-	.	.
=35-	=35-	=35-	=35-	=35-	=35-	=35-	=35-
!	!	!LO:TX:t=P:problem=K wielkie przed kluczem	!	!	!	!	!
.	.	1.c\	Ky-	2a\	-e	.	.
.	.	.	.	2g\	.	.	.
.	.	.	.	4e\	e-	.	.
.	.	.	.	4f\	.	.	.
.	.	2c\	-ri-	4g\	-lei-	.	.
!	!	!	!	!LO:TX:t=P:problem=kreska pseudotaktowa	!	!	!
.	.	.	.	4e\	.	.	.
=36-	=36-	=36-	=36-	=36-	=36-	=36-	=36-
!LO:TX:t=P:problem=kreska pseudotaktowa	!	!	!	!	!	!	!
0rF	.	2d\	-e	2f\	.	2r	.
!	!	!	!	!	!	!LO:TX:t=P:problem=K wielkie przed kluczem, na pocz. pięciolinii	!
.	.	2c/	e-	2g\	.	1cc\	Ky-
.	.	4A/	-lei-	1a\	.	.	.
.	.	4B-/	.	.	.	.	.
!	!	!	!	!	!	!LO:TX:t=P:problem=kreska pseudotaktowa	!
.	.	4c/	.	.	.	2cc\	-ri-
.	.	4A/	.	.	.	.	.
=37-	=37-	=37-	=37-	=37-	=37-	=37-	=37-
!	!	!	!	!LO:TX:t=P:problem=kreska pseudotaktowa	!	!	!
2r	.	2B-/	.	0f\	-son	2dd\	-e
!LO:TX:t=P:problem=K wielkie przed kluczem, na pocz. pięciolinii	!	!	!	!	!	!	!
1F\	Ky-	2c\	.	.	.	2cc\	.
.	.	2d\	-son	.	.	4a/	e-
.	.	.	.	.	.	4b-/	.
!	!	!LO:TX:t=P:problem=kreska pseudotaktowa	!	!	!	!	!
2F/	-ri-	2c\	.	.	.	4cc/	.
!	!	!	!	!	!	!LO:TX:t=P:problem=kreska pseudotaktowa	!
.	.	.	.	.	.	4a/	.
=38-	=38-	=38-	=38-	=38-	=38-	=38-	=38-
!	!	!LO:TX:t=P:problem=kreska pseudotaktowa	!	!	!	!	!
2G\	-e	0r	.	2r	.	2b-\	.
*	*	*	*	*	*ij	*	*
2F/	.	.	.	1f\	Ky-	2cc\	.
4D/	e-	.	.	.	.	1dd\	-lei-
4E/	.	.	.	.	.	.	.
!	!	!	!	!LO:TX:t=P:problem=kreska pseudotaktowa	!	!	!
4F/	-lei-	.	.	2f\	-ri-	.	.
4D/	.	.	.	.	.	.	.
=39-	=39-	=39-	=39-	=39-	=39-	=39-	=39-
2E/	.	2r	.	2g\	.	2.cc\	.
*	*	*	*ij	*	*	*	*
2F/	.	1c\	Ky-	1f\	-e	.	.
.	.	.	.	.	.	4b-/	.
!LO:TX:t=P:problem=kreska pseudotaktowa	!	!	!	!	!	!	!
1C/	-son	.	.	.	.	2a/	.
!	!	!	!	!LO:TX:t=P:problem=kreska pseudotaktowa	!	!	!
.	.	2c/	-ri-	2e\	e-	4g/	.
!	!	!	!	!	!	!LO:TX:t=P:problem=kreska pseudotaktowa	!
.	.	.	.	.	.	4a/	.
=40-	=40-	=40-	=40-	=40-	=40-	=40-	=40-
0r	.	2d\	-e	2f\	.	4b-/	.
.	.	.	.	.	.	4g/	.
.	.	2c\	.	2.a\	-lei-	1cc\	.
.	.	2A/	e-	.	.	.	.
.	.	.	.	4g\	.	.	.
.	.	2B-/	.	1f\	.	4b-/	.
.	.	.	.	.	.	4a/	.
=41-	=41-	=41-	=41-	=41-	=41-	=41-	=41-
2rA	.	1c\	-lei-	.	.	1g/	-son.
!	!	!	!	!LO:TX:t=P:problem=kreska pseudotaktowa	!	!	!
*	*ij	*	*	*	*	*	*
1c\	Ky-	.	.	2e\	.	.	.
!	!	!LO:TX:t=P:problem=kreska pseudotaktowa	!	!	!	!LO:TX:t=P:problem=kreska pseudotaktowa	!
.	.	0F/	-son	2f,<\	-son	1a/	.
*	*	*	*Xij	*	*Xij	*	*
2c\	-ri-	.	.	1f\	Ky-	.	.
=42-	=42-	=42-	=42-	=42-	=42-	=42-	=42-
2d\	-e	.	.	.	.	2r	.
!	!	!	!	!LO:TX:t=P:problem=kreska pseudotaktowa	!	!	!
1c\	e-	.	.	2f\	-ri-	1cc\	Ky-
!	!	!	!	!LO:TX:t=P:problem=kreska pseudotaktowa	!	!	!
.	.	2r	.	1a\	-e	.	.
!LO:TX:t=P:problem=kreska pseudotaktowa	!	!	!	!	!	!	!
2A\	.	1f\	Ky-	.	.	2cc\	-ri-
=43-	=43-	=43-	=43-	=43-	=43-	=43-	=43-
*	*	*	*	*lig	*	*	*
2B-\	.	.	.	1g\	[e]-	2dd\	-e
!	!	!	!	!	!	!LO:TX:t=P:problem=kreska pseudotaktowa	!
2c\	.	2e\	-ri-	.	.	2cc\	.
2F\	.	2d\	-e	1f\	-lei-	4a/	.
.	.	.	.	.	.	4b-/	.
2A\	.	2c\	.	.	.	4cc/	.
!	!	!	!	!	!	!LO:TX:t=P:problem=kreska pseudotaktowa	!
.	.	.	.	.	.	4a/	.
*	*	*	*	*Xlig	*	*	*
=44-	=44-	=44-	=44-	=44-	=44-	=44-	=44-
!	!	!	!	!LO:TX:t=P:problem=kreska pseudotaktowa	!	!	!
2.G\	-lei-	4d\	.	1g\	-son	4b-/	e-
.	.	4c\	.	.	.	4a/	.
.	.	4d\	.	.	.	4b-/	.
!	!	!LO:SIC:v:t=custos f	!	!	!	!LO:TX:t=P:problem=kreska pseudotaktowa	!
!	!	!LO:TX:t=P:problem=kreska pseudotaktowa	!	!	!	!	!
8F/L	.	4e\	.	.	.	4cc/	.
!LO:TX:t=P:problem=kreska pseudotaktowa	!	!	!	!	!	!	!
8E/J	.	.	.	.	.	.	.
!	!	!	!	!LO:SIC:v:t=custos g	!	!LO:P=LB:g=original	!
!	!	!LO:LB:g=original	!	!LO:TX:t=P:problem=kreska pseudotaktowa	!	!	!
2D/	.	2f\	e-	1rb	.	2dd\	-lei-
2E/	.	2e\	.	.	.	1cc\	.
=45-	=45-	=45-	=45-	=45-	=45-	=45-	=45-
!	!	!	!	!LO:LB:g=original	!	!	!
2F/	.	1d\	-lei-	2r	.	.	.
*	*	*	*	*	*ij	*	*
2G\	.	.	.	1g\	Ky-	2b-\	.
!LO:TX:t=P:problem=kreska pseudotaktowa	!	!	!	!	!	!LO:TX:t=P:problem=kreska pseudotaktowa	!
0C/	-son	2c,<\	-son	.	.	1cc\	-son
*	*Xij	*	*ij	*	*	*	*
.	.	1c\	Ky-	2g\	-ri-	.	.
=46-	=46-	=46-	=46-	=46-	=46-	=46-	=46-
!	!	!	!	!LO:TX:t=P:problem=kreska pseudotaktowa	!	!	!
.	.	.	.	1g\	-e	2r	.
!	!	!LO:TX:t=P:problem=kreska pseudotaktowa	!	!	!	!LO:TX:t=P:problem=kreska pseudotaktowa	!
.	.	2c\	-ri-	.	.	2cc\	e-
0r	.	2.f\	-e	2.a\	e-	2cc\	-lei-
.	.	.	.	.	.	1ff\	.
.	.	4e\	e-	4g\	.	.	.
=47-	=47-	=47-	=47-	=47-	=47-	=47-	=47-
.	.	2d\	-lei-	4f\	.	.	.
.	.	.	.	4e\	.	.	.
!	!	!	!	!	!	!LO:TX:t=P:problem=kreska pseudotaktowa	!
.	.	2c\	.	1a\	-le-	2ee\	.
!LO:TX:t=P:problem=kreska pseudotaktowa	!	!	!	!	!	!	!
1r	.	1B-/	.	.	.	1dd\	.
!	!	!	!	!LO:TX:t=P:problem=kreska pseudotaktowa	!	!	!
.	.	.	.	2g\	-i-	.	.
=48-	=48-	=48-	=48-	=48-	=48-	=48-	=48-
!	!	!LO:TX:t=P:problem=kreska pseudotaktowa	!	!	!	!	!
2r	.	1A/	-son	2a,<\	-son	2.cc\	.
*	*	*	*Xij	*	*Xij	*	*
1F\	Ky-	.	.	2c/	Ky-	.	.
!	!	!	!	!	!	!LO:TX:t=P:problem=kreska pseudotaktowa	!
.	.	.	.	.	.	4b-/	.
.	.	2r	.	2c/	-ri-	4a/	.
.	.	.	.	.	.	4g/	.
2F\	-ri-	2c\	Ky-	2.f\	-e	1a/	.
=49-	=49-	=49-	=49-	=49-	=49-	=49-	=49-
1.B-\	-e	2d\	-ri-	.	.	.	.
.	.	.	.	4e/	.	.	.
.	.	4B-/	-e	4d/	.	4g/	.
!	!	!	!	!	!	!LO:TX:t=P:problem=kreska pseudotaktowa	!
!	!	!	!	!LO:TX:t=P:problem=kreska pseudotaktowa	!	!	!
.	.	4c/	.	4c/	.	4f/	.
.	.	4d\	.	2B-/	.	2g/	.
.	.	4e\	.	.	.	.	.
2A\	.	1f\	e-	2c/	.	2a/	.
=50-	=50-	=50-	=50-	=50-	=50-	=50-	=50-
*lig	*	*	*	*	*	*	*
1G\	.	.	.	2d/	.	2b-/	.
!	!	!	!	!LO:TX:t=P:problem=kreska pseudotaktowa	!	!LO:TX:t=P:problem=kreska pseudotaktowa	!
.	.	2e\	.	2B-/	e-	2g/	.
1F\	.	2d\	.	2.f\	-lei-	1a/	.
.	.	2c/	-lei-	.	.	.	.
.	.	.	.	4e/	.	.	.
*Xlig	*	*	*	*	*	*	*
=51-	=51-	=51-	=51-	=51-	=51-	=51-	=51-
2BB-/	e-	4B-/	.	2d/	.	4g/	.
.	.	4A/	.	.	.	4f/	.
2D/	.	4G/	.	2B-/	.	1f/	.
.	.	4F/	.	.	.	.	.
1C/	-lei-	1G/	.	1c/	.	.	.
.	.	.	.	.	.	2e/	.
=52-	=52-	=52-	=52-	=52-	=52-	=52-	=52-
0F\;	-son.	0A/;	-son.	0c/;	-son.	0f/;	-son.
==	==	==	==	==	==	==	==
*-	*-	*-	*-	*-	*-	*-	*-
!!!RDF**kern: > = above
!!!RDF**kern: < = below
!!!RDF**kern: l = terminal long
!!!system-decoration: [(s1,s2,s3,s4,s5)]
!!!EST: 2021-03-17
!!!AIN: 1 alto 1 bass 1 soprn 1 tenor
!!!ENC: Mateusz Solarz
!!!END: 2021-03-02!!!EED: Andrzej Borzym
